!!!COM: Palestrina, Giovanni Perluigi da
!!!OPR: Missa Aspice Domine
!!!OMD: Sanctus
!!!OTL: Hosanna
**kern	**kern	**kern	**kern	**kern
*Ibass	*Itenor	*Itenor	*Icalto	*Icant
!Bassus	!Tenor 2	!Tenor 1	!Altus	!Cantus
*clefF4	*clefGv2	*clefGv2	*clefG2	*clefG2
*k[]	*k[]	*k[]	*k[]	*k[]
*D:dor	*D:dor	*D:dor	*D:dor	*D:dor
*M4/2	*M4/2	*M4/2	*M4/2	*M4/2
=78	=78	=78	=78	=78
1d	0r	1r	2r	0r
.	.	.	2d	.
2d	.	2r	2.f	.
[2d	.	2d	.	.
.	.	.	4g	.
=79	=79	=79	=79	=79
2d]	1d	2f	2a	0r
4c	.	2g	2b	.
4B	.	.	.	.
4A	2e	1a	1cc	.
4G	.	.	.	.
2A	2f	.	.	.
=80	=80	=80	=80	=80
2G	2.g	2d	1b	1dd
2B	.	1g	.	.
.	4f	.	.	.
2c	2e	.	1a	2ee
[2d	2d	2f	.	2ff
=81	=81	=81	=81	=81
2d]	1g	1e	1b	1gg
4c	.	.	.	.
4B	.	.	.	.
1c#	2.a	1A	2r	1ee
.	.	.	[2a	.
.	4g	.	.	.
=82	=82	=82	=82	=82
1d	4f	0r	2a]	2.ff
.	4e	.	.	.
.	4d	.	2f	.
.	4c	.	.	4ee
1r	2B	.	2g	2dd
.	2A	.	[2a	2cc
=83	=83	=83	=83	=83
1r	1e	1r	2a]	1b
.	.	.	2g#	.
2r	1A	1e	1a	1a
[2A	.	.	.	.
=84	=84	=84	=84	=84
2A]	2r	2f	1r	0r
2B	2d	2g	.	.
2c	2e	1a	2r	.
2d	2f	.	2a	.
=85	=85	=85	=85	=85
2B	1g	2d	2b	0r
2.c	.	2.e	2g	.
.	2e	.	1cc	.
4B	.	4d	.	.
4A	[2f	4c	.	.
4G	.	4B	.	.
=86	=86	=86	=86	=86
2F	4f]	2A	2cc	2r
.	4e	.	.	.
2.G	4d	2B-	1b-	2dd
.	4c	.	.	.
.	4B-	2G	.	2ee
4F	4c	.	.	.
2D	[2d	2A	2a	2ff
=87	=87	=87	=87	=87
1E	2d]	1e	1g	2gg
.	2c#	.	.	2ee
[1D	[1d	1A	2r	2.ff
.	.	.	2a	.
.	.	.	.	4ee
=88	=88	=88	=88	=88
1D]	0d]	2r	2a	4dd
.	.	.	.	4cc
.	.	2a	2a	4dd
.	.	.	.	4ee
2r	.	2a	2f	[1ff
2d	.	2a	2d	.
=89	=89	=89	=89	=89
2d	0r	2f	2a	1ff]
2d	.	2d	2b	.
2.e	.	2.g	2.cc	1ee
4d	.	4f	4b	.
=90	=90	=90	=90	=90
2c	2r	2e	2a	1r
2B	2d	2d	2g#	.
[1A	2c	[1e	1a	2r
.	2A	.	.	2ee
=91	=91	=91	=91	=91
0A]	2.c	1e]	1r	2ee
.	.	.	.	2ee
.	4d	.	.	.
.	2e	1r	1a	2cc
.	2f	.	.	2a
=92	=92	=92	=92	=92
0r	2c	1r	2a	2ee
.	2d	.	2a	2ff
.	1G	2r	2.b-	2.gg
.	.	2d	.	.
.	.	.	4a	4ff
=93	=93	=93	=93	=93
0r	2r	2e	2g	2ee
.	2d	2f	2f	1dd
.	1e	1g	1e	.
.	.	.	.	2cc#
=94	=94	=94	=94	=94
2r	1f	1a	2d	1dd
2d	.	.	1a	.
2d	2d	1f	.	2r
2d	2f	.	2b	2dd
=95	=95	=95	=95	=95
2c	2g	1e	1cc	1ee
2A	2.a	.	.	.
[1d	.	1r	1a	1ff
.	4g	.	.	.
.	[2f	.	.	.
=96	=96	=96	=96	=96
2d]	2f]	1d	2f	1dd
4c	4e	.	2g	.
4B-	4d	.	.	.
1A	4c#	1e	[1a	1r
.	4B	.	.	.
.	2c#	.	.	.
=97	=97	=97	=97	=97
1F	2d	1f	1a]	1r
.	2A	.	.	.
2.G	1B	1d	2r	1dd
.	.	.	2g	.
4F	.	.	.	.
=98	=98	=98	=98	=98
1E	1c#	1r	2g	1ee
.	.	.	2g	.
1D	[1d	2r	2f	1ff
.	.	2a	2d	.
=99	=99	=99	=99	=99
2r	1d]	2a	2.f	2dd
2d	.	2a	.	2ff
.	.	.	4g	.
2d	1r	2f	1a	2ff
[2d	.	2d	.	[2ff
=100	=100	=100	=100	=100
2d]	1d	2.f	1a	2ff]
4c	.	.	.	4ee
4B-	.	4g	.	4dd
1A	2e	1a	2r	2cc
.	2f	.	2a	2a
=101	=101	=101	=101	=101
1G	2.g	1d	1b-	1dd
.	4f	.	.	.
2A	2e	2c	[1a	2r
2D	[2d	2f	.	2dd
=102	=102	=102	=102	=102
1A	2d]	2e	1a]	2ee
.	2c#	2A	.	2ff
[1G	1d	2r	[1b-	2.gg
.	.	2d	.	.
.	.	.	.	4ff
=103	=103	=103	=103	=103
2G]	2r	2g	2b-]	4ee
.	.	.	.	4dd
2D	2d	2f	2a	1dd
1A	1e	1e	1a	.
.	.	.	.	2cc#
=104	=104	=104	=104	=104
2D	2.f	2d	1a	1dd
2d	.	2d	.	.
.	4g	.	.	.
2c#	1a	2e	2r	1r
2d	.	2f#	2a	.
=105	=105	=105	=105	=105
1G	2r	2.g	1b	2r
.	2.g	.	.	2dd
.	.	4f	.	.
2c	.	2e	2cc	2ee
.	4e	.	.	.
2d	2a	4d	2a	2ff#
.	.	4c	.	.
=106	=106	=106	=106	=106
0G	2g	4B	0b	2.gg
.	.	4A	.	.
.	2d	2B	.	.
.	.	.	.	4ff
.	1g	2G	.	2ee
.	.	[2g	.	2dd
=107	=107	=107	=107	=107
0A	2e	2g]	0a	2cc#
.	2.a	2f	.	1dd
.	.	1e	.	.
.	4g	.	.	.
.	2e	.	.	2cc#
=108	=108	=108	=108	=108
[0D	[0f#	[0d	[0a	[0dd
=109	=109	=109	=109	=109
0D]	0f#]	0d]	0a]	0dd]
==	==	==	==	==
*-	*-	*-	*-	*-
!!!CDT: 1525/^1526/-1594/2/2
!!!OCY: Italia
!!!AGN: Mass (Parody)
!!!AST: renaissance, vocal
!!!ASW: Motet (Jacquet)
!!!PWK: Masses, Book 2
!!!RNB: Cadence finals: A
!!!YOR: Le Opere Complete, v. 4, p. 91
!!!YOO: Rome, Italy: Fratelli Scalera
!!!END: 1992//
!!!EED: John Miller
!!!YEC: Copyright 2000, John Miller
!!!YEN: United States of America
!!!YEM: Rights to all derivative electronic formats reserved.
!!!YEM: Refer to licensing agreement for further details.
!!!YEM: This file must be accompanied by the licensing agreement.
!!!YEM: A copy of the licensing agreement may be found at http://www.music-cog.ohio-state.edu/HumdrumDatabases/Palestrina/license.txt
!!!EMD: converted to Humdrum by Bret Aarden
